ES1T1/13/aimg/b10.svg

<svg clip-rule="evenodd" fill-rule="evenodd" stroke-linejoin="round" stroke-miterlimit="2" viewBox="0 0 173 226" xmlns="http://www.w3.org/2000/svg" xmlns:xlink="http://www.w3.org/1999/xlink"><linearGradient id="a" gradientTransform="matrix(1 0 0 -1 0 .000019)" gradientUnits="userSpaceOnUse" x1="0" x2="1" y1="0" y2="0"><stop offset="0" stop-color="#00a550"/><stop offset="1" stop-color="#007338"/></linearGradient><linearGradient id="b" gradientTransform="matrix(1 0 0 -1 0 .000019)" gradientUnits="userSpaceOnUse" x1="0" x2="1" y1="0" y2="0"><stop offset="0" stop-color="#00af4c"/><stop offset="1" stop-color="#00ad4d"/></linearGradient><linearGradient id="c" gradientTransform="matrix(1 0 0 -1 0 .000009)" gradientUnits="userSpaceOnUse" x1="0" x2="1" y1="0" y2="0"><stop offset="0" stop-color="#97cf91"/><stop offset="1" stop-color="#00a550"/></linearGradient><linearGradient id="d" gradientTransform="matrix(1 0 0 -1 0 .00005)" gradientUnits="userSpaceOnUse" x1="0" x2="1" y1="0" y2="0"><stop offset="0" stop-color="#00ac4e"/><stop offset="1" stop-color="#007338"/></linearGradient><linearGradient id="e" gradientTransform="matrix(1 0 0 -1 0 .00005)" gradientUnits="userSpaceOnUse" x1="0" x2="1" y1="0" y2="0"><stop offset="0" stop-color="#d6e1e2"/><stop offset="1" stop-color="#a8bfbd"/></linearGradient><linearGradient id="f" gradientTransform="matrix(1 0 0 -1 0 -.000036)" gradientUnits="userSpaceOnUse" x1="0" x2="1" y1="0" y2="0"><stop offset="0" stop-color="#fff"/><stop offset="1" stop-color="#dde6e6"/></linearGradient><g fill-rule="nonzero"><path d="m.212-.397c.051 0 .098.018.132.051.026.025.058.072.058.151l.374-.027c.061-.004.114.014.155.051.044.042.069.106.069.18 0 .098-.038.153-.07.182-.041.036-.095.052-.155.045l-.389-.042-.001.015c-.004.11-.08.188-.184.188-.083 0-.174-.053-.182-.203l-.019-.362c0-.004 0-.009 0-.013 0-.14.11-.216.212-.216z" fill="url(#a)" transform="matrix(0 216.206 216.206 0 86.69 9.78)"/><path d="m.213-.397c.05 0 .097.018.131.051.026.025.058.072.058.151l.374-.027c.061-.004.114.014.155.051.044.042.069.106.069.18 0 .098-.038.153-.07.182-.041.036-.095.052-.155.045l-.389-.042-.001.015c-.004.111-.08.188-.184.188-.083 0-.174-.053-.182-.203l-.019-.362c0-.004 0-.009 0-.013 0-.14.109-.216.213-.216z" fill="url(#b)" transform="matrix(0 216.199 216.199 0 86.69 .79)"/><path d="m.21-.396c.05 0 .096.018.129.05.027.025.058.072.058.15v.004l.382-.027c.06-.005.112.013.152.05.045.041.069.104.069.178 0 .098-.038.152-.069.18-.041.036-.094.052-.153.045l-.397-.043-.001.019c-.004.111-.077.186-.181.186-.082 0-.172-.053-.18-.201l-.019-.364c0-.005 0-.009 0-.014 0-.138.108-.213.21-.213z" fill="url(#c)" transform="matrix(0 214.414 214.414 0 86.69 .79)"/><path d="m.148-.374c.064 0 .124.039.12.148l-.005.109.583-.043c.102-.007.154.068.154.171 0 .116-.058.177-.151.167l-.595-.064-.006.137c-.003.08-.049.123-.114.123-.062 0-.105-.044-.111-.143l-.023-.442c0-.003 0-.007 0-.011 0-.11.084-.152.148-.152z" fill="url(#d)" transform="matrix(0 176.692 176.692 0 86.69 24.14)"/><g fill="url(#e)"><path d="m.148-.374c.064 0 .124.039.12.148l-.005.109.583-.043c.102-.007.154.068.154.171 0 .116-.058.177-.151.167l-.595-.064-.006.137c-.003.08-.049.123-.114.123-.062 0-.105-.044-.111-.143l-.023-.442c0-.003 0-.007 0-.011 0-.11.084-.152.148-.152z" transform="matrix(0 176.692 176.692 0 86.69 21.45)"/><path d="m.148-.374c.064 0 .124.039.12.148l-.005.109.583-.043c.102-.007.154.068.154.171 0 .116-.058.177-.151.167l-.595-.064-.006.137c-.003.08-.049.123-.114.123-.062 0-.105-.044-.111-.143l-.023-.442c0-.004 0-.007 0-.011 0-.11.084-.152.148-.152z" transform="matrix(0 176.693 176.693 0 86.69 20.54)"/><path d="m.148-.374c.064 0 .124.039.12.148l-.005.109.583-.043c.103-.007.154.068.154.171 0 .116-.058.177-.151.167l-.595-.064-.006.137c-.003.08-.049.123-.114.123-.062 0-.105-.044-.111-.143l-.023-.442c0-.003 0-.007 0-.011 0-.11.084-.152.148-.152z" transform="matrix(0 176.698 176.698 0 86.69 19.64)"/><path d="m.148-.374c.064 0 .124.039.12.148l-.005.109.583-.043c.102-.007.154.068.154.171 0 .116-.058.177-.151.167l-.595-.064-.006.137c-.003.08-.049.123-.114.123-.062 0-.105-.044-.111-.143l-.023-.442c0-.004 0-.007 0-.011 0-.11.084-.152.148-.152z" transform="matrix(0 176.687 176.687 0 86.69 18.75)"/><path d="m.148-.374c.064 0 .124.039.12.148l-.005.109.583-.043c.102-.007.154.068.154.171 0 .116-.058.177-.151.167l-.595-.064-.006.137c-.003.08-.049.123-.114.123-.062 0-.105-.044-.111-.143l-.023-.442c0-.003 0-.007 0-.011 0-.11.084-.152.148-.152z" transform="matrix(0 176.692 176.692 0 86.69 17.85)"/><path d="m.148-.374c.064 0 .124.039.12.148l-.005.109.583-.043c.103-.007.154.068.154.171 0 .116-.058.177-.151.167l-.595-.064-.006.137c-.003.08-.049.123-.114.123-.062 0-.105-.044-.111-.143l-.023-.442c0-.003 0-.007 0-.011 0-.11.084-.152.148-.152z" transform="matrix(0 176.698 176.698 0 86.69 16.95)"/><path d="m.148-.374c.064 0 .124.039.12.148l-.005.109.583-.043c.103-.007.154.068.154.171 0 .116-.058.177-.151.167l-.595-.064-.006.137c-.003.08-.049.123-.114.123-.062 0-.105-.044-.111-.143l-.023-.442c0-.003 0-.007 0-.011 0-.11.084-.152.148-.152z" transform="matrix(0 176.692 176.692 0 86.69 16.05)"/><path d="m0-.225c.001-.108.084-.149.148-.149s.124.039.12.148l-.005.109.583-.043c.102-.007.154.068.154.171 0 .116-.058.177-.151.167l-.595-.064-.006.137c-.003.08-.049.123-.114.123-.062 0-.105-.044-.111-.143l-.023-.442z" transform="matrix(0 176.699 176.699 0 86.69 15.16)"/><path d="m.148-.374c.064 0 .124.039.12.148l-.005.109.583-.043c.103-.007.154.068.154.171 0 .116-.058.177-.151.167l-.595-.064-.006.137c-.003.08-.049.123-.114.123-.062 0-.105-.044-.111-.143l-.023-.442c0-.003 0-.007 0-.011 0-.11.084-.152.148-.152z" transform="matrix(0 176.698 176.698 0 86.69 14.26)"/><path d="m.148-.374c.064 0 .124.039.12.148l-.005.109.583-.043c.103-.007.154.068.154.171 0 .116-.058.177-.151.167l-.595-.064-.006.137c-.003.08-.049.123-.114.123-.062 0-.105-.044-.111-.143l-.023-.442c0-.003 0-.007 0-.011 0-.11.084-.152.148-.152z" transform="matrix(0 176.687 176.687 0 86.69 13.37)"/></g><path d="m0-30.776c0 2.745-1.818 4.679-5.208 4.818l-5.824.252 2.716 25.229c.448 3.948-2.128 6.412-7.085 6.412-4.338 0-7.534-2.185-7.224-6.523l1.79-24.725-4.617.195c-4.593.195-6.247-2.38-6.247-5.069 0-2.831 1.879-6.524 6.917-6.271l18.734.978c4.2.224 6.048 2.074 6.048 4.704" fill="#fff" transform="matrix(4.16667 0 0 4.16667 152.73 165.33)"/><path d="m.133-.368c.021 0 .05.004.072.025.021.021.032.053.032.095v.011s-.005.114-.005.114c0 .006.002.012.006.016.005.004.011.006.017.006l.607-.044c.039-.003.07.006.093.028.029.027.045.072.045.128 0 .059-.015.104-.044.129-.022.02-.053.028-.09.024l-.62-.067c-.006 0-.012.002-.016.005-.005.004-.008.01-.008.015l-.006.144c-.003.068-.038.107-.097.107-.058 0-.09-.043-.095-.128l-.024-.461c0-.003 0-.007 0-.01 0-.109.084-.137.133-.137z" fill="url(#f)" transform="matrix(0 169.504 169.504 0 86.7 18.75)"/></g></svg>

<?xml version="1.0" encoding="UTF-8" standalone="no"?>
<!DOCTYPE svg PUBLIC "-//W3C//DTD SVG 1.1//EN" "http://www.w3.org/Graphics/SVG/1.1/DTD/svg11.dtd">
<svg width="100%" height="100%" viewBox="0 0 173 226" version="1.1" xmlns="http://www.w3.org/2000/svg" xmlns:xlink="http://www.w3.org/1999/xlink" xml:space="preserve" xmlns:serif="http://www.serif.com/" style="fill-rule:evenodd;clip-rule:evenodd;stroke-linejoin:round;stroke-miterlimit:2;">
    <g transform="matrix(1,0,0,1,-1831,-1112)">
        <g>
            <g transform="matrix(0,216.206,216.206,0,1917.69,1121.78)">
                <path d="M0.212,-0.397C0.263,-0.397 0.31,-0.379 0.344,-0.346C0.37,-0.321 0.402,-0.274 0.402,-0.195L0.776,-0.222C0.837,-0.226 0.89,-0.208 0.931,-0.171C0.975,-0.129 1,-0.065 1,0.009C1,0.107 0.962,0.162 0.93,0.191C0.889,0.227 0.835,0.243 0.775,0.236L0.386,0.194L0.385,0.209C0.381,0.319 0.305,0.397 0.201,0.397C0.118,0.397 0.027,0.344 0.019,0.194L0,-0.168C0,-0.172 0,-0.177 0,-0.181C0,-0.321 0.11,-0.397 0.212,-0.397Z" style="fill:url(#_Linear1);fill-rule:nonzero;"/>
            </g>
            <g transform="matrix(0,216.199,216.199,0,1917.69,1112.79)">
                <path d="M0.213,-0.397C0.263,-0.397 0.31,-0.379 0.344,-0.346C0.37,-0.321 0.402,-0.274 0.402,-0.195L0.776,-0.222C0.837,-0.226 0.89,-0.208 0.931,-0.171C0.975,-0.129 1,-0.065 1,0.009C1,0.107 0.962,0.162 0.93,0.191C0.889,0.227 0.835,0.243 0.775,0.236L0.386,0.194L0.385,0.209C0.381,0.32 0.305,0.397 0.201,0.397C0.118,0.397 0.027,0.344 0.019,0.194L0,-0.168C0,-0.172 0,-0.177 0,-0.181C0,-0.321 0.109,-0.397 0.213,-0.397Z" style="fill:url(#_Linear2);fill-rule:nonzero;"/>
            </g>
            <g transform="matrix(0,214.414,214.414,0,1917.69,1112.79)">
                <path d="M0.21,-0.396C0.26,-0.396 0.306,-0.378 0.339,-0.346C0.366,-0.321 0.397,-0.274 0.397,-0.196C0.397,-0.195 0.397,-0.193 0.397,-0.192L0.779,-0.219C0.839,-0.224 0.891,-0.206 0.931,-0.169C0.976,-0.128 1,-0.065 1,0.009C1,0.107 0.962,0.161 0.931,0.189C0.89,0.225 0.837,0.241 0.778,0.234L0.381,0.191L0.38,0.21C0.376,0.321 0.303,0.396 0.199,0.396C0.117,0.396 0.027,0.343 0.019,0.195L0,-0.169C0,-0.174 0,-0.178 0,-0.183C0,-0.321 0.108,-0.396 0.21,-0.396Z" style="fill:url(#_Linear3);fill-rule:nonzero;"/>
            </g>
            <g transform="matrix(0,176.692,176.692,0,1917.69,1136.14)">
                <path d="M0.148,-0.374C0.212,-0.374 0.272,-0.335 0.268,-0.226L0.263,-0.117L0.846,-0.16C0.948,-0.167 1,-0.092 1,0.011C1,0.127 0.942,0.188 0.849,0.178L0.254,0.114L0.248,0.251C0.245,0.331 0.199,0.374 0.134,0.374C0.072,0.374 0.029,0.33 0.023,0.231L0,-0.211C0,-0.214 0,-0.218 0,-0.222C0,-0.332 0.084,-0.374 0.148,-0.374Z" style="fill:url(#_Linear4);fill-rule:nonzero;"/>
            </g>
            <g transform="matrix(0,176.692,176.692,0,1917.69,1133.45)">
                <path d="M0.148,-0.374C0.212,-0.374 0.272,-0.335 0.268,-0.226L0.263,-0.117L0.846,-0.16C0.948,-0.167 1,-0.092 1,0.011C1,0.127 0.942,0.188 0.849,0.178L0.254,0.114L0.248,0.251C0.245,0.331 0.199,0.374 0.134,0.374C0.072,0.374 0.029,0.33 0.023,0.231L0,-0.211C0,-0.214 0,-0.218 0,-0.222C0,-0.332 0.084,-0.374 0.148,-0.374Z" style="fill:url(#_Linear5);fill-rule:nonzero;"/>
            </g>
            <g transform="matrix(0,176.693,176.693,0,1917.69,1132.54)">
                <path d="M0.148,-0.374C0.212,-0.374 0.272,-0.335 0.268,-0.226L0.263,-0.117L0.846,-0.16C0.948,-0.167 1,-0.092 1,0.011C1,0.127 0.942,0.188 0.849,0.178L0.254,0.114L0.248,0.251C0.245,0.331 0.199,0.374 0.134,0.374C0.072,0.374 0.029,0.33 0.023,0.231L0,-0.211C0,-0.215 0,-0.218 0,-0.222C0,-0.332 0.084,-0.374 0.148,-0.374Z" style="fill:url(#_Linear6);fill-rule:nonzero;"/>
            </g>
            <g transform="matrix(0,176.698,176.698,0,1917.69,1131.64)">
                <path d="M0.148,-0.374C0.212,-0.374 0.272,-0.335 0.268,-0.226L0.263,-0.117L0.846,-0.16C0.949,-0.167 1,-0.092 1,0.011C1,0.127 0.942,0.188 0.849,0.178L0.254,0.114L0.248,0.251C0.245,0.331 0.199,0.374 0.134,0.374C0.072,0.374 0.029,0.33 0.023,0.231L0,-0.211C0,-0.214 0,-0.218 0,-0.222C0,-0.332 0.084,-0.374 0.148,-0.374Z" style="fill:url(#_Linear7);fill-rule:nonzero;"/>
            </g>
            <g transform="matrix(0,176.687,176.687,0,1917.69,1130.75)">
                <path d="M0.148,-0.374C0.212,-0.374 0.272,-0.335 0.268,-0.226L0.263,-0.117L0.846,-0.16C0.948,-0.167 1,-0.092 1,0.011C1,0.127 0.942,0.188 0.849,0.178L0.254,0.114L0.248,0.251C0.245,0.331 0.199,0.374 0.134,0.374C0.072,0.374 0.029,0.33 0.023,0.231L0,-0.211C0,-0.215 0,-0.218 0,-0.222C0,-0.332 0.084,-0.374 0.148,-0.374Z" style="fill:url(#_Linear8);fill-rule:nonzero;"/>
            </g>
            <g transform="matrix(0,176.692,176.692,0,1917.69,1129.85)">
                <path d="M0.148,-0.374C0.212,-0.374 0.272,-0.335 0.268,-0.226L0.263,-0.117L0.846,-0.16C0.948,-0.167 1,-0.092 1,0.011C1,0.127 0.942,0.188 0.849,0.178L0.254,0.114L0.248,0.251C0.245,0.331 0.199,0.374 0.134,0.374C0.072,0.374 0.029,0.33 0.023,0.231L0,-0.211C0,-0.214 0,-0.218 0,-0.222C0,-0.332 0.084,-0.374 0.148,-0.374Z" style="fill:url(#_Linear9);fill-rule:nonzero;"/>
            </g>
            <g transform="matrix(0,176.698,176.698,0,1917.69,1128.95)">
                <path d="M0.148,-0.374C0.212,-0.374 0.272,-0.335 0.268,-0.226L0.263,-0.117L0.846,-0.16C0.949,-0.167 1,-0.092 1,0.011C1,0.127 0.942,0.188 0.849,0.178L0.254,0.114L0.248,0.251C0.245,0.331 0.199,0.374 0.134,0.374C0.072,0.374 0.029,0.33 0.023,0.231L0,-0.211C0,-0.214 0,-0.218 0,-0.222C0,-0.332 0.084,-0.374 0.148,-0.374Z" style="fill:url(#_Linear10);fill-rule:nonzero;"/>
            </g>
            <g transform="matrix(0,176.692,176.692,0,1917.69,1128.05)">
                <path d="M0.148,-0.374C0.212,-0.374 0.272,-0.335 0.268,-0.226L0.263,-0.117L0.846,-0.16C0.949,-0.167 1,-0.092 1,0.011C1,0.127 0.942,0.188 0.849,0.178L0.254,0.114L0.248,0.251C0.245,0.331 0.199,0.374 0.134,0.374C0.072,0.374 0.029,0.33 0.023,0.231L0,-0.211C0,-0.214 0,-0.218 0,-0.222C0,-0.332 0.084,-0.374 0.148,-0.374Z" style="fill:url(#_Linear11);fill-rule:nonzero;"/>
            </g>
            <g transform="matrix(0,176.699,176.699,0,1917.69,1127.16)">
                <path d="M0,-0.225C0.001,-0.333 0.084,-0.374 0.148,-0.374C0.212,-0.374 0.272,-0.335 0.268,-0.226L0.263,-0.117L0.846,-0.16C0.948,-0.167 1,-0.092 1,0.011C1,0.127 0.942,0.188 0.849,0.178L0.254,0.114L0.248,0.251C0.245,0.331 0.199,0.374 0.134,0.374C0.072,0.374 0.029,0.33 0.023,0.231L0,-0.211L0,-0.225Z" style="fill:url(#_Linear12);fill-rule:nonzero;"/>
            </g>
            <g transform="matrix(0,176.698,176.698,0,1917.69,1126.26)">
                <path d="M0.148,-0.374C0.212,-0.374 0.272,-0.335 0.268,-0.226L0.263,-0.117L0.846,-0.16C0.949,-0.167 1,-0.092 1,0.011C1,0.127 0.942,0.188 0.849,0.178L0.254,0.114L0.248,0.251C0.245,0.331 0.199,0.374 0.134,0.374C0.072,0.374 0.029,0.33 0.023,0.231L0,-0.211C0,-0.214 0,-0.218 0,-0.222C0,-0.332 0.084,-0.374 0.148,-0.374Z" style="fill:url(#_Linear13);fill-rule:nonzero;"/>
            </g>
            <g transform="matrix(0,176.687,176.687,0,1917.69,1125.37)">
                <path d="M0.148,-0.374C0.212,-0.374 0.272,-0.335 0.268,-0.226L0.263,-0.117L0.846,-0.16C0.949,-0.167 1,-0.092 1,0.011C1,0.127 0.942,0.188 0.849,0.178L0.254,0.114L0.248,0.251C0.245,0.331 0.199,0.374 0.134,0.374C0.072,0.374 0.029,0.33 0.023,0.231L0,-0.211C0,-0.214 0,-0.218 0,-0.222C0,-0.332 0.084,-0.374 0.148,-0.374Z" style="fill:url(#_Linear14);fill-rule:nonzero;"/>
            </g>
            <g transform="matrix(4.16667,0,0,4.16667,1983.73,1277.33)">
                <path d="M0,-30.776C0,-28.031 -1.818,-26.097 -5.208,-25.958L-11.032,-25.706L-8.316,-0.477C-7.868,3.471 -10.444,5.935 -15.401,5.935C-19.739,5.935 -22.935,3.75 -22.625,-0.588L-20.835,-25.313L-25.452,-25.118C-30.045,-24.923 -31.699,-27.498 -31.699,-30.187C-31.699,-33.018 -29.82,-36.711 -24.782,-36.458L-6.048,-35.48C-1.848,-35.256 0,-33.406 0,-30.776" style="fill:white;fill-rule:nonzero;"/>
            </g>
            <g transform="matrix(0,169.504,169.504,0,1917.7,1130.75)">
                <path d="M0.133,-0.368C0.154,-0.368 0.183,-0.364 0.205,-0.343C0.226,-0.322 0.237,-0.29 0.237,-0.248C0.237,-0.244 0.237,-0.241 0.237,-0.237C0.237,-0.237 0.232,-0.123 0.232,-0.123C0.232,-0.117 0.234,-0.111 0.238,-0.107C0.243,-0.103 0.249,-0.101 0.255,-0.101L0.862,-0.145C0.901,-0.148 0.932,-0.139 0.955,-0.117C0.984,-0.09 1,-0.045 1,0.011C1,0.07 0.985,0.115 0.956,0.14C0.934,0.16 0.903,0.168 0.866,0.164L0.246,0.097C0.24,0.097 0.234,0.099 0.23,0.102C0.225,0.106 0.222,0.112 0.222,0.117L0.216,0.261C0.213,0.329 0.178,0.368 0.119,0.368C0.061,0.368 0.029,0.325 0.024,0.24L0,-0.221C0,-0.224 0,-0.228 0,-0.231C0,-0.34 0.084,-0.368 0.133,-0.368Z" style="fill:url(#_Linear15);fill-rule:nonzero;"/>
            </g>
        </g>
    </g>
    <defs>
        <linearGradient id="_Linear1" x1="0" y1="0" x2="1" y2="0" gradientUnits="userSpaceOnUse" gradientTransform="matrix(1,0,0,-1,0,1.8894e-05)"><stop offset="0" style="stop-color:rgb(0,165,80);stop-opacity:1"/><stop offset="1" style="stop-color:rgb(0,115,56);stop-opacity:1"/></linearGradient>
        <linearGradient id="_Linear2" x1="0" y1="0" x2="1" y2="0" gradientUnits="userSpaceOnUse" gradientTransform="matrix(1,0,0,-1,0,1.88946e-05)"><stop offset="0" style="stop-color:rgb(0,175,76);stop-opacity:1"/><stop offset="1" style="stop-color:rgb(0,173,77);stop-opacity:1"/></linearGradient>
        <linearGradient id="_Linear3" x1="0" y1="0" x2="1" y2="0" gradientUnits="userSpaceOnUse" gradientTransform="matrix(1,0,0,-1,0,8.58932e-06)"><stop offset="0" style="stop-color:rgb(151,207,145);stop-opacity:1"/><stop offset="1" style="stop-color:rgb(0,165,80);stop-opacity:1"/></linearGradient>
        <linearGradient id="_Linear4" x1="0" y1="0" x2="1" y2="0" gradientUnits="userSpaceOnUse" gradientTransform="matrix(1,0,0,-1,0,4.96956e-05)"><stop offset="0" style="stop-color:rgb(0,172,78);stop-opacity:1"/><stop offset="1" style="stop-color:rgb(0,115,56);stop-opacity:1"/></linearGradient>
        <linearGradient id="_Linear5" x1="0" y1="0" x2="1" y2="0" gradientUnits="userSpaceOnUse" gradientTransform="matrix(1,0,0,-1,0,4.96956e-05)"><stop offset="0" style="stop-color:rgb(214,225,226);stop-opacity:1"/><stop offset="0" style="stop-color:rgb(214,225,226);stop-opacity:1"/><stop offset="1" style="stop-color:rgb(168,191,189);stop-opacity:1"/></linearGradient>
        <linearGradient id="_Linear6" x1="0" y1="0" x2="1" y2="0" gradientUnits="userSpaceOnUse" gradientTransform="matrix(1,0,0,-1,0,4.96955e-05)"><stop offset="0" style="stop-color:rgb(214,225,226);stop-opacity:1"/><stop offset="0" style="stop-color:rgb(214,225,226);stop-opacity:1"/><stop offset="1" style="stop-color:rgb(168,191,189);stop-opacity:1"/></linearGradient>
        <linearGradient id="_Linear7" x1="0" y1="0" x2="1" y2="0" gradientUnits="userSpaceOnUse" gradientTransform="matrix(1,0,0,-1,0,4.9694e-05)"><stop offset="0" style="stop-color:rgb(214,225,226);stop-opacity:1"/><stop offset="0" style="stop-color:rgb(214,225,226);stop-opacity:1"/><stop offset="1" style="stop-color:rgb(168,191,189);stop-opacity:1"/></linearGradient>
        <linearGradient id="_Linear8" x1="0" y1="0" x2="1" y2="0" gradientUnits="userSpaceOnUse" gradientTransform="matrix(1,0,0,-1,0,4.96972e-05)"><stop offset="0" style="stop-color:rgb(214,225,226);stop-opacity:1"/><stop offset="0" style="stop-color:rgb(214,225,226);stop-opacity:1"/><stop offset="1" style="stop-color:rgb(168,191,189);stop-opacity:1"/></linearGradient>
        <linearGradient id="_Linear9" x1="0" y1="0" x2="1" y2="0" gradientUnits="userSpaceOnUse" gradientTransform="matrix(1,0,0,-1,0,4.96956e-05)"><stop offset="0" style="stop-color:rgb(214,225,226);stop-opacity:1"/><stop offset="0" style="stop-color:rgb(214,225,226);stop-opacity:1"/><stop offset="1" style="stop-color:rgb(168,191,189);stop-opacity:1"/></linearGradient>
        <linearGradient id="_Linear10" x1="0" y1="0" x2="1" y2="0" gradientUnits="userSpaceOnUse" gradientTransform="matrix(1,0,0,-1,0,4.9694e-05)"><stop offset="0" style="stop-color:rgb(214,225,226);stop-opacity:1"/><stop offset="0" style="stop-color:rgb(214,225,226);stop-opacity:1"/><stop offset="1" style="stop-color:rgb(168,191,189);stop-opacity:1"/></linearGradient>
        <linearGradient id="_Linear11" x1="0" y1="0" x2="1" y2="0" gradientUnits="userSpaceOnUse" gradientTransform="matrix(1,0,0,-1,0,4.96956e-05)"><stop offset="0" style="stop-color:rgb(214,225,226);stop-opacity:1"/><stop offset="0" style="stop-color:rgb(214,225,226);stop-opacity:1"/><stop offset="1" style="stop-color:rgb(168,191,189);stop-opacity:1"/></linearGradient>
        <linearGradient id="_Linear12" x1="0" y1="0" x2="1" y2="0" gradientUnits="userSpaceOnUse" gradientTransform="matrix(1,0,0,-1,0,4.96937e-05)"><stop offset="0" style="stop-color:rgb(214,225,226);stop-opacity:1"/><stop offset="0" style="stop-color:rgb(214,225,226);stop-opacity:1"/><stop offset="1" style="stop-color:rgb(168,191,189);stop-opacity:1"/></linearGradient>
        <linearGradient id="_Linear13" x1="0" y1="0" x2="1" y2="0" gradientUnits="userSpaceOnUse" gradientTransform="matrix(1,0,0,-1,0,4.96939e-05)"><stop offset="0" style="stop-color:rgb(214,225,226);stop-opacity:1"/><stop offset="0" style="stop-color:rgb(214,225,226);stop-opacity:1"/><stop offset="1" style="stop-color:rgb(168,191,189);stop-opacity:1"/></linearGradient>
        <linearGradient id="_Linear14" x1="0" y1="0" x2="1" y2="0" gradientUnits="userSpaceOnUse" gradientTransform="matrix(1,0,0,-1,0,4.96972e-05)"><stop offset="0" style="stop-color:rgb(214,225,226);stop-opacity:1"/><stop offset="0" style="stop-color:rgb(214,225,226);stop-opacity:1"/><stop offset="1" style="stop-color:rgb(168,191,189);stop-opacity:1"/></linearGradient>
        <linearGradient id="_Linear15" x1="0" y1="0" x2="1" y2="0" gradientUnits="userSpaceOnUse" gradientTransform="matrix(1,0,0,-1,0,-3.64102e-05)"><stop offset="0" style="stop-color:white;stop-opacity:1"/><stop offset="0" style="stop-color:white;stop-opacity:1"/><stop offset="1" style="stop-color:rgb(221,230,230);stop-opacity:1"/><stop offset="1" style="stop-color:rgb(221,230,230);stop-opacity:1"/></linearGradient>
    </defs>
</svg>
